Scripts/harness/fixtures/cp2/jpeg-sidecar-pair/DSC0001.xmp
<?xpacket begin="﻿" id="W5M0MpCehiHzreSzNTczkc9d"?>
<x:xmpmeta xmlns:x="adobe:ns:meta/" x:xmptk="Adobe Lightroom Classic">
 <rdf:RDF xmlns:rdf="http://www.w3.org/1999/02/22-rdf-syntax-ns#">
  <rdf:Description rdf:about=""
    xmlns:crs="http://ns.adobe.com/camera-raw-settings/1.0/"
    xmlns:foreign="http://example.com/lr/1.0/"
    crs:Version="15.0"
    crs:ProcessVersion="11.0"
    crs:HasSettings="True"
    crs:Exposure2012="+0.75"
    crs:Contrast2012="+10"
    crs:Highlights2012="-15"
    crs:Shadows2012="+12"
    crs:Vibrance="+5"
    crs:Saturation="+0"
    crs:WhiteBalance="Custom"
    crs:Temperature="5800"
    crs:ColorTemperature="5800"
    crs:Tint="+3"
    foreign:CustomLook="Kodachrome"
    foreign:PresetName="Vintage Fade"/>
 </rdf:RDF>
</x:xmpmeta>
<?xpacket end="w"?>
