artifacts/raw-harness-v6/handoff/DSC08242.xmp
<?xml version="1.0" encoding="UTF-8" standalone="yes"?>
<?xpacket begin="﻿" id="W5M0MpCehiHzreSzNTczkc9d"?>
<x:xmpmeta xmlns:x="adobe:ns:meta/" x:xmptk="Lumina">
    <rdf:RDF xmlns:rdf="http://www.w3.org/1999/02/22-rdf-syntax-ns#">
        <rdf:Description xmlns:crs="http://ns.adobe.com/camera-raw-settings/1.0/" xmlns:lumina="http://lumina.app/xmp/1.0/" rdf:about="" crs:Version="15.0" crs:ProcessVersion="11.0" crs:HasSettings="True" crs:Exposure2012="+0.30" crs:Contrast2012="+15" crs:Highlights2012="-25" crs:Shadows2012="+20" crs:Vibrance="+0" crs:Saturation="+0" crs:Sharpness="40" crs:LuminanceSmoothing="15" crs:WhiteBalance="Custom" crs:Temperature="5600" crs:ColorTemperature="5600" crs:Tint="+0" lumina:MappingVersion="lumina-ciraw-1" lumina:RecipeFingerprint="v1|0.30000|5600.00000|0.00000|15.00000|-25.00000|20.00000|0.00000|0.00000|0.00000|0.00000|0.00000|0.00000|0.00000|40.00000|15.00000|0.00000|nocrop|noheal" lumina:WrittenFieldsHash="c486dd6dba3e0cb82b8636a50b4cea93df51dbb37fb3e5c609837e1a29bfaeef" lumina:WrittenAt="2026-08-05T17:50:56Z"/>
    </rdf:RDF>
</x:xmpmeta>
<?xpacket end="w"?>